!!!!SEGMENT: pl-cz--i-73_kobierkowicz-jozef--adiuro-te.krn
!!!cenid: 17xx:917
!!!COM: Kobierkowicz, Józef
!!!COM-rismid: pe30017725
!!!CDT: <1721->=1735
!!!CNT: Polish
!!!OTL: Adiuro te
!!!PDT:
!!!AGN: Sacred
!!!SMS-siglum: PL-CZ
!!!SMS-shelfmark: I-73
!!!SMS-shelfwork: W
!!!SMS-variant:
!!!SMS-altvar:
!!!NIFC-rismid: 300237558
!!!URL-scan: http://repozytorium.nifc.pl/skany/pl-cz-nut--i-73
!!!ONB-nifc:
!!!key: A
**kern	**fba	**kern	**fba	**kern	**dynam	**kern	**dynam	**kern	**text	**kern	**text
*	*	*group2	*	*group2	*	*group2	*	*group1	*	*group1	*
*part6	*	*part5	*	*part4	*part4	*part3	*part3	*part2	*part2	*part1	*part1
*staff6	*	*staff5	*	*staff4	*	*staff3	*	*staff2	*staff2	*staff1	*staff1
*I"Organo.	*	*I"Violon	*	*I"Viol: 2do	*	*I"Viol. 1mo	*	*I"Canto 2do	*	*I"Canto 1mo	*
*I'org	*	*I'vlne	*	*I'vl 2	*	*I'vl 1	*	*I'S 2	*	*I'S 1	*
*Iorgan	*	*Iviolb	*	*Ivioln	*	*Ivioln	*	*Isoprn	*	*Isoprn	*
*ICklav	*	*ICstr	*	*ICstr	*	*ICstr	*	*ICvox	*	*ICvox	*
*IGcont	*	*IGacmp	*	*IGacmp	*	*IGacmp	*	*IGcoro	*	*IGcoro	*
*clefF4	*	*clefF4	*	*clefG2	*	*clefG2	*	*clefC1	*	*clefC1	*
*k[f#c#g#]	*	*k[f#c#g#]	*	*k[f#c#g#]	*	*k[f#c#g#]	*	*k[f#c#g#]	*	*k[f#c#g#]	*
*A:	*	*A:	*	*A:	*	*A:	*	*A:	*	*A:	*
*M3/2	*	*M3/2	*	*M3/2	*	*M3/2	*	*M3/2	*	*M3/2	*
=1	=1	=1	=1	=1	=1	=1	=1	=1	=1	=1	=1
*all\right	*	*all\right	*	*all\right	*	*all\right	*	*all\right	*	*all\right	*
*2\right	*	*2\right	*	*2\right	*	*2\right	*	*	*	*	*
!LO:TX:a:t=P:problem=znaki C# i F# jeden nad drugim	!	!LO:TX:a:t=P:problem=znaki C# i F# jeden nad drugim	!	!LO:TX:a:t=P:problem=znaki cc# i ff# jeden nad drugim	!	!LO:TX:a:t=P:problem=znaki cc# i ff# jeden nad drugim	!	!LO:TX:a:t=P:problem=znaki f# i cc# (jeden nad drugim) g#	!	!LO:TX:a:t=P:problem=znaki f# i cc# (jeden nad drugim) g#	!
!LO:TX:b:t=Adjuro te.	!	!LO:TX:b:t=Adjuro te	!	!LO:TX:b:t=Adjuro te	!	!LO:TX:b:t=Adjuro te	!	!	!	!	!
2A\	.	2A\	.	2cc#\	.	2ee\	.	00.r	.	00.r	.
2r	.	2r	.	2cc#\	.	2ee\	.	.	.	.	.
2r	.	2r	.	2a/	.	2cc#\	.	.	.	.	.
=2	=2	=2	=2	=2	=2	=2	=2	=2	=2	=2	=2
2E\	7	2E\	.	2b/	.	2dd\	.	.	.	.	.
1E	3	1E	.	1g#	.	1b	.	.	.	.	.
=3	=3	=3	=3	=3	=3	=3	=3	=3	=3	=3	=3
2A\	.	2A\	.	4a/	.	4cc#\	.	.	.	.	.
.	.	.	.	4g#/	.	4b\	.	.	.	.	.
2AA/	.	2AA/	.	2a/	.	2cc#\	.	.	.	.	.
2r	.	2r	.	2r	.	2r	.	.	.	.	.
=4	=4	=4	=4	=4	=4	=4	=4	=4	=4	=4	=4
!	!	!	!	!	!LO:DY:a:t=Piano	!	!LO:DY:b:t=Piano	!	!	!	!
2A\	.	2A\	.	2cc#\	p	2ee\	p	.	.	.	.
2r	.	2r	.	2cc#\	.	2ee\	.	.	.	.	.
2r	.	2r	.	2a/	.	2cc#\	.	.	.	.	.
=5	=5	=5	=5	=5	=5	=5	=5	=5	=5	=5	=5
2D\	6	2D\	.	2b\	.	2dd\	.	00.r	.	00.r	.
1E	.	1E	.	1g#	.	1b	.	.	.	.	.
=6	=6	=6	=6	=6	=6	=6	=6	=6	=6	=6	=6
2A\	.	2A\	.	4a/	.	4cc#\	.	.	.	.	.
.	.	.	.	4g#/	.	4b\	.	.	.	.	.
2AA/	.	2AA/	.	2a/	.	2cc#\	.	.	.	.	.
2r	.	2r	.	2r	.	2r	.	.	.	.	.
=7	=7	=7	=7	=7	=7	=7	=7	=7	=7	=7	=7
!	!	!	!	!	!LO:DY:a:t=forte	!	!LO:DY:a:t=forte	!	!	!	!
2E\	.	2E\	.	2g#/	f	2b/	f	.	.	.	.
2r	.	2r	.	2e/	.	2g#/	.	.	.	.	.
2r	.	2r	.	2f#/	.	2a/	.	.	.	.	.
=8	=8	=8	=8	=8	=8	=8	=8	=8	=8	=8	=8
2E\	.	2E\	.	1g#	.	1b	.	.	.	.	.
2r	.	2r	.	.	.	.	.	.	.	.	.
2r	.	2r	.	2a/	.	2cc#\	.	.	.	.	.
=9	=9	=9	=9	=9	=9	=9	=9	=9	=9	=9	=9
2E\	7	2E\	.	4b/	.	4dd\	.	00.r	.	00.r	.
.	.	.	.	4g#/	.	4b\	.	.	.	.	.
2AA/	.	2AA/	.	2a/	.	2cc#\	.	.	.	.	.
2r	.	2r	.	2r	.	2r	.	.	.	.	.
=10	=10	=10	=10	=10	=10	=10	=10	=10	=10	=10	=10
2E\	.	2E\	.	2g#/	.	2b\	.	.	.	.	.
2E\	.	2E\	.	2g#/	.	2b\	.	.	.	.	.
2r	.	2ryy	.	2dd\	.	2ff#\	.	.	.	.	.
=11	=11	=11	=11	=11	=11	=11	=11	=11	=11	=11	=11
1E	6	1E	5 6	1cc#	.	1ee	.	.	.	.	.
2E\	7	2E\	7	2b\	.	2dd\	.	.	.	.	.
!LO:LB:g=original	!	!	!	!	!	!	!	!	!	!	!
=12	=12	=12	=12	=12	=12	=12	=12	=12	=12	=12	=12
2E\	6 4	2E\	.	4a/	.	4cc#\	.	.	.	.	.
.	.	.	.	4g#/	.	4b\	.	.	.	.	.
2AA/	.	2AA/	.	2a/	.	2cc#\	.	.	.	.	.
2r	.	2r	.	2a/	.	[2aa\	.	.	.	.	.
!	!	!LO:LB:g=original	!	!LO:LB:g=original	!	!	!	!	!	!	!
=13	=13	=13	=13	=13	=13	=13	=13	=13	=13	=13	=13
[>1.AA	.	[>1.AA	.	2cc#\	.	1.aa_	.	00.r	.	00.r	.
.	.	.	.	4cc#\	.	.	.	.	.	.	.
.	.	.	.	4ee\	.	.	.	.	.	.	.
.	.	.	.	4cc#\	.	.	.	.	.	.	.
.	.	.	.	4a/	.	.	.	.	.	.	.
!	!	!	!	!	!	!LO:LB:g=original	!	!	!	!	!
=14	=14	=14	=14	=14	=14	=14	=14	=14	=14	=14	=14
1.AA_>	.	1.AA_>	.	4cc#\	.	1.aa_<	.	.	.	.	.
.	.	.	.	4dd\	.	.	.	.	.	.	.
.	.	.	.	1ee	.	.	.	.	.	.	.
=15	=15	=15	=15	=15	=15	=15	=15	=15	=15	=15	=15
1.AA_>	.	1.AA_>	.	2cc#\	.	1.aa_<	.	.	.	.	.
.	.	.	.	4cc#\	.	.	.	.	.	.	.
.	.	.	.	4ee\	.	.	.	.	.	.	.
.	.	.	.	4cc#\	.	.	.	.	.	.	.
.	.	.	.	4a/	.	.	.	.	.	.	.
=16	=16	=16	=16	=16	=16	=16	=16	=16	=16	=16	=16
1.AA]	.	1.AA]	.	4b/	.	1.aa]	.	.	.	.	.
.	.	.	.	4g#/	.	.	.	.	.	.	.
.	.	.	.	2a/	.	.	.	.	.	.	.
.	.	.	.	2a/	.	.	.	.	.	.	.
=17	=17	=17	=17	=17	=17	=17	=17	=17	=17	=17	=17
4A\	8_	4A\	.	4a/	.	4aa\	.	00.r	.	00.r	.
8G#\L	.	8G#\L	.	8g#/L	.	8gg#\L	.	.	.	.	.
8F#\J	8_	8F#\J	.	8f#/J	.	8ff#\J	.	.	.	.	.
2E\	8_	2E\	.	2e/	.	2ee\	.	.	.	.	.
2F#\	.	2F#\	.	2f#/	.	2ff#\	.	.	.	.	.
=18	=18	=18	=18	=18	=18	=18	=18	=18	=18	=18	=18
4D\	8	4D\	.	4d/	.	4dd\	.	.	.	.	.
4F#\	.	4F#\	.	4f#/	.	4ff#\	.	.	.	.	.
4E\	8	4E\	.	4e/	.	4ee\	.	.	.	.	.
4D\	.	4D\	.	4d/	.	4dd\	.	.	.	.	.
2C#/	8	2C#/	.	2c#/	.	2cc#\	.	.	.	.	.
=19	=19	=19	=19	=19	=19	=19	=19	=19	=19	=19	=19
4A\	.	4A\	.	4a/	.	4aa\	.	.	.	.	.
8G#\L	.	8G#\L	.	8g#/L	.	8gg#\L	.	.	.	.	.
8F#\J	.	8F#\J	.	8f#/J	.	8ff#\J	.	.	.	.	.
2E\	.	2E\	.	2e/	.	2ee\	.	.	.	.	.
2F#\	.	2F#\	.	2f#/	.	2ff#\	.	.	.	.	.
=20	=20	=20	=20	=20	=20	=20	=20	=20	=20	=20	=20
4D\	.	4D\	.	4d/	.	4dd\	.	.	.	.	.
4F#\	.	4F#\	.	4f#/	.	4ff#\	.	.	.	.	.
4E\	.	4E\	.	4e/	.	4ee\	.	.	.	.	.
4D\	.	4D\	.	4d/	.	4dd\	.	.	.	.	.
2C#/	.	2C#/	.	2c#/	.	2cc#\	.	.	.	.	.
=21	=21	=21	=21	=21	=21	=21	=21	=21	=21	=21	=21
[>1.AA	.	[>1.AA	.	4e/	.	4ee\	.	00.r	.	00.r	.
.	.	.	.	4c#/	.	4cc#\	.	.	.	.	.
.	.	.	.	2d/	.	2dd\	.	.	.	.	.
.	.	.	.	4c#/	.	4cc#\	.	.	.	.	.
.	.	.	.	4G#/	.	4g#/	.	.	.	.	.
=22	=22	=22	=22	=22	=22	=22	=22	=22	=22	=22	=22
1.AA_>	.	1.AA_>	.	2A/	.	2a/	.	.	.	.	.
.	.	.	.	2c#/	.	2cc#\	.	.	.	.	.
.	.	.	.	2d#X/	.	2dd#X\	.	.	.	.	.
=23	=23	=23	=23	=23	=23	=23	=23	=23	=23	=23	=23
1.AA]	.	1.AA]	.	4e/	.	4ee\	.	.	.	.	.
.	.	.	.	4c#/	.	4cc#\	.	.	.	.	.
!	!	!	!	!LO:LB:g=original	!	!	!	!	!	!	!
.	.	.	.	2d/	.	2dd\	.	.	.	.	.
.	.	.	.	4c#/	.	4cc#\	.	.	.	.	.
.	.	.	.	4G#/	.	4g#/	.	.	.	.	.
=24	=24	=24	=24	=24	=24	=24	=24	=24	=24	=24	=24
2AA/	8	2AA/	.	2A/	.	2a/	.	.	.	.	.
2AA/	8	2AA/	.	2A/	.	2a/	.	.	.	.	.
2AA/	8	2AA/	.	2A/	.	2a/	.	.	.	.	.
!LO:LB:g=original	!	!	!	!	!	!	!	!	!	!	!
=25	=25	=25	=25	=25	=25	=25	=25	=25	=25	=25	=25
*	*	*	*	*	*	*	*	*2\right	*	*2\right	*
!LO:TX:b:t=canto.	!	!	!	!	!LO:DY:a:t=Piano	!	!LO:DY:b:t=Piano	!	!	!	!
2AA/	.	2AA/	.	2cc#\	p	2ee\	p	2cc#\	Ad-	2ee\	Ad-
!	!	!	!	!	!	!LO:LB:g=original	!	!	!	!	!
2r	.	2r	.	2cc#\	.	2ee\	.	2cc#\	-ju-	2ee\	-ju-
2r	.	2r	.	2a/	.	2cc#\	.	2a\	-ro	2cc#\	-ro
!	!	!LO:LB:g=original	!	!	!	!	!	!	!	!	!
=26	=26	=26	=26	=26	=26	=26	=26	=26	=26	=26	=26
2E\	7	2E\	.	2b/	.	2dd\	.	2b\	te	2dd\	te
1E	3	1E	.	1g#	.	1b	.	1g#	pri-	1b	pri-
=27	=27	=27	=27	=27	=27	=27	=27	=27	=27	=27	=27
2A\	.	2A\	.	4a/	.	4cc#\	.	4a\	-ma-	4cc#\	-ma-
.	.	.	.	4g#/	.	4b\	.	4g#\	-ri-	4b\	-ri-
2AA/	.	2AA/	.	2a/	.	2cc#\	.	2a\	-a	2cc#\	-a
2r	.	2r	.	2r	.	2r	.	2r	.	2r	.
=28	=28	=28	=28	=28	=28	=28	=28	=28	=28	=28	=28
2A\	.	2A\	.	2cc#\	.	2ee\	.	2cc#\	au-	2ee\	au-
2r	.	2r	.	2cc#\	.	2ee\	.	2cc#\	-ro-	2ee\	-ro-
2r	.	2r	.	2a/	.	2cc#\	.	2a\	-ra	2cc#\	-ra
=29	=29	=29	=29	=29	=29	=29	=29	=29	=29	=29	=29
2D\	6	2D\	.	2b/	.	2dd\	.	2b\	lu-	2dd\	lu-
1E	3	1E	.	1g#	.	1b	.	1g#	-cis	1b	-cis
=30	=30	=30	=30	=30	=30	=30	=30	=30	=30	=30	=30
2A\	.	2A\	.	4a/	.	4cc#\	.	4a\	fi-	4cc#\	fi-
.	.	.	.	4g#/	.	4b\	.	4g#/	-li-	4b\	-li-
2AA/	.	2AA/	.	2a/	.	2cc#\	.	2a\	-a	2cc#\	-a
2r	.	2r	.	2r	.	2r	.	2r	.	2r	.
=31	=31	=31	=31	=31	=31	=31	=31	=31	=31	=31	=31
2E\	.	2E\	.	2g#/	.	2b/	.	2g#/	no-	2b\	no-
*	*	*	*	*	*	*	*	*	*	*custos:g	*
!	!	!	!	!	!	!	!	!	!	!LO:LB:g=original	!
2r	.	2r	.	2e/	.	2g#/	.	2e/	-ctis	2g#/	-ctis
2r	.	2r	.	2f#/	.	2a/	.	2f#/	que	2a\	que
*	*	*	*	*	*	*	*	*custos:g	*	*	*
!	!	!	!	!	!	!	!	!LO:LB:g=original	!	!	!
=32	=32	=32	=32	=32	=32	=32	=32	=32	=32	=32	=32
2E\	.	2E\	.	1g#	.	1b	.	1g#	vos	1b	vos
2r	.	2r	.	.	.	.	.	.	.	.	.
2r	.	2r	.	2cc#\	.	2ee\	.	2cc#\	ex-	2ee\	ex-
=33	=33	=33	=33	=33	=33	=33	=33	=33	=33	=33	=33
2E\	7	2E\	.	4b/	.	4dd\	.	4b\	-cu-	4dd\	-cu-
.	.	.	.	4g#/	.	4b\	.	4g#/	-bi-	4b\	-bi-
2AA/	.	2AA/	.	2a/	.	2cc#\	.	2a\	-as	2cc#\	-as
2r	.	2r	.	2r	.	2r	.	2r	.	2r	.
=34	=34	=34	=34	=34	=34	=34	=34	=34	=34	=34	=34
2E\	.	2E\	.	2g#/	.	2b/	.	2g#/	stel-	2b\	stel-
2r	.	2r	.	2e/	.	2g#/	.	2e/	-lae	2g#/	-lae
2r	.	2r	.	2f#/	.	2a/	.	2f#/	mi-	2a\	mi-
=35	=35	=35	=35	=35	=35	=35	=35	=35	=35	=35	=35
2E\	.	2E\	.	1g#	.	1b	.	1g#	-can-	1b	-can-
2r	.	2r	.	.	.	.	.	.	.	.	.
2r	.	2r	.	2dd\	.	2ff#\	.	2dd\	-tes	2ff#\	-tes
=36	=36	=36	=36	=36	=36	=36	=36	=36	=36	=36	=36
1A	.	1A	.	4cc#\	.	4ee\	.	4cc#\	ob-	4ee\	ob-
.	.	.	.	4b/	.	4dd\	.	4b\	-vi-	4dd\	-vi-
.	.	.	.	2a/	.	2cc#\	.	2a\	-as	2cc#\	-as
2AA/	.	2AA/	.	2a/	.	2a/	.	2r	.	2r	.
!	!	!	!	!LO:LB:g=original	!	!	!	!	!	!	!
=37	=37	=37	=37	=37	=37	=37	=37	=37	=37	=37	=37
[>1.AA	.	[>1.AA	.	[1.e 1.A	.	[1.e 1.c#	.	2cc#\	ad-	[1.aa	au-
.	.	.	.	.	.	.	.	4cc#\	-ju-	.	.
.	.	.	.	.	.	.	.	4ee\	-ro	.	.
.	.	.	.	.	.	.	.	4cc#\	te	.	.
.	.	.	.	.	.	.	.	4a\	pri-	.	.
=38	=38	=38	=38	=38	=38	=38	=38	=38	=38	=38	=38
1.AA_>	.	1.AA_>	.	1.e_ 1.A	.	1.e_ 1.c#	.	4cc#\	-ma-	1.aa]	.
.	.	.	.	.	.	.	.	4dd\	-ri-	.	.
.	.	.	.	.	.	.	.	1ee	-a	.	.
!LO:LB:g=original	!	!	!	!	!	!	!	!	!	!	!
=39	=39	=39	=39	=39	=39	=39	=39	=39	=39	=39	=39
1.AA_>	.	1.AA]	.	1.e] 1.A	.	1.e_ 1.c#	.	2cc#\	au-	1.aa	-ro-
.	.	.	.	.	.	.	.	4cc#\	-ro-	.	.
.	.	.	.	.	.	.	.	4ee\	-ra	.	.
*	*	*	*	*	*	*	*	*custos:cc	*	*	*
!	!	!	!	!	!	!	!	!LO:LB:g=original	!	!	!
.	.	.	.	.	.	.	.	4cc#\	lu-	.	.
.	.	.	.	.	.	.	.	4a\	-cis	.	.
!	!	!	!	!	!	!LO:LB:g=original	!	!	!	!	!
=40	=40	=40	=40	=40	=40	=40	=40	=40	=40	=40	=40
!	!	!	!	!	!	!LO:TX:t=P:problem=brak zakończenia ligatury	!	!	!	!	!
1AA]	.	1AA	.	1e 1A	.	1e] 1c#	.	4b\	fi-	1.aa	-ra
.	.	.	.	.	.	.	.	4g#/	-li-	.	.
.	.	.	.	.	.	.	.	1a	-a	.	.
2AA/	.	2AA/	.	2a/	.	2aa\	.	.	.	.	.
!	!	!LO:LB:g=original	!	!	!	!	!	!	!	!LO:LB:g=original	!
=41	=41	=41	=41	=41	=41	=41	=41	=41	=41	=41	=41
!	!	!	!	!	!LO:DY:b:t=forte	!	!LO:DY:b:t=forte	!	!	!	!
4A\	8_	4A\	.	4a/	f	4aa\	f	4a\	no-	4aa\	no-
8G#\L	.	8G#\L	.	8g#/L	.	8gg#\L	.	8g#/L	.	8gg#\L	.
8F#\J	8_	8F#\J	.	8f#/J	.	8ff#\J	.	8f#/J	.	8ff#\J	.
2E\	.	2E\	.	2e/	.	2ee\	.	2e/	-ctis	2ee\	-ctis
2F#\	8	2F#\	.	2f#/	.	2ff#\	.	2f#/	que	2ff#\	que
=42	=42	=42	=42	=42	=42	=42	=42	=42	=42	=42	=42
4D\	8_	4D\	.	4d/	.	4dd\	.	4d/	vos	4dd\	vos
4F#\	.	4F#\	.	4f#/	.	4ff#\	.	4f#/	ex-	4ff#\	ex-
4E\	8_	4E\	.	4e/	.	4ee\	.	4e/	-cu-	4ee\	-cu-
4D\	.	4D\	.	4d/	.	4dd\	.	4d/	-bi-	4dd\	-bi-
2C#/	8	2C#/	.	2c#/	.	2cc#\	.	2c#/	-as	2cc#\	-as
=43	=43	=43	=43	=43	=43	=43	=43	=43	=43	=43	=43
4A\	8_	4A\	.	4aa\	.	4a/	.	4aa\	stel-	4a\	stel-
8G#\L	.	8G#\L	.	8gg#\L	.	8g#/L	.	8gg#\L	.	8g#/L	.
8F#\J	x	8F#\J	.	8ff#\J	.	8f#/J	.	8ff#\J	.	8f#/J	.
2E\	.	2E\	.	2ee\	.	2e/	.	2ee\	-lae	2e/	-lae
2F#\	.	2F#\	.	2ff#\	.	2f#/	.	2ff#\	mi-	2f#/	mi-
=44	=44	=44	=44	=44	=44	=44	=44	=44	=44	=44	=44
4D\	8	4D\	.	4dd\	.	4d/	.	4dd\	-can-	4d/	-can-
4F#\	.	4F#\	.	4ff#\	.	4f#/	.	4ff#\	-tes	4f#/	-tes
4E\	8	4E\	.	4ee\	.	4e/	.	4ee\	ob-	4e/	ob-
4D\	.	4D\	.	4dd\	.	4d/	.	4dd\	-vi-	4d/	-vi-
2C#/	8	2C#/	.	2cc#\	.	2c#/	.	2cc#\	-as	2c#/	-as
=45	=45	=45	=45	=45	=45	=45	=45	=45	=45	=45	=45
2E\	.	2E\	.	2g#/	.	2b/	.	2g#/	dum	2b\	Dum
2r	.	2r	.	4g#/	.	4b/	.	4g#/	sol	4b\	sol
.	.	.	.	4f#/	.	4a/	.	4f#/	de-	4a\	de-
!	!	!	!	!	!	!	!	!LO:LB:g=original	!	!	!
2r	.	2r	.	4g#/	.	4b/	.	4g#/	-co-	4b\	-co-
.	.	.	.	4a/	.	4cc#\	.	4a\	-rus	4cc#\	-rus
!	!	!	!	!	!	!	!	!	!	!LO:LB:g=original	!
=46	=46	=46	=46	=46	=46	=46	=46	=46	=46	=46	=46
2E\	7	2E\	.	2.b/	.	2.dd\	.	2.b\	o-	2.dd\	o-
2r	.	2r	.	.	.	.	.	.	.	.	.
.	.	.	.	4g#/	.	4b\	.	4g#\	-ri-	4b\	-ri-
2A\	.	2A\	.	2a/	.	2cc#\	.	2a\	-tur	2cc#\	-tur
=47	=47	=47	=47	=47	=47	=47	=47	=47	=47	=47	=47
2E\	.	2E\	.	2g#/	.	2b/	.	2g#/	lu-	2b\	lu-
2r	.	2r	.	4g#/	.	4b/	.	4g#/	-cet	4b\	-cet
.	.	.	.	4f#/	.	4a/	.	4f#/	de-	4a\	de-
2r	.	2r	.	4g#/	.	4b/	.	4g#\	-co-	4b\	-co-
.	.	.	.	4a/	.	4cc#\	.	4a\	-re	4cc#\	-re
=48	=48	=48	=48	=48	=48	=48	=48	=48	=48	=48	=48
2E\	7	2E\	.	2.b/	.	2.dd\	.	2.b\	la-	2.dd\	la-
2r	.	2r	.	.	.	.	.	.	.	.	.
.	.	.	.	4g#/	.	4b/	.	4g#/	-bi-	4b\	-bi-
2A\	.	2A\	.	2a/	.	2cc#\	.	2a\	-tur	2cc#\	-tur
!	!	!	!	!LO:LB:g=original	!	!	!	!	!	!	!
=49	=49	=49	=49	=49	=49	=49	=49	=49	=49	=49	=49
!	!	!	!	!	!	!	!	!LO:TX:a:t=5	!	!LO:TX:a:t=5	!
[>1.AA	.	[>1.AA	.	4e/	.	4ee\	.	00.r	.	00.r	.
.	.	.	.	4c#/	.	4cc#\	.	.	.	.	.
.	.	.	.	2d/	.	2dd\	.	.	.	.	.
.	.	.	.	4c#/	.	4cc#\	.	.	.	.	.
.	.	.	.	4G#/	.	4g#/	.	.	.	.	.
!LO:LB:g=original	!	!	!	!	!	!LO:LB:g=original	!	!	!	!	!
=50	=50	=50	=50	=50	=50	=50	=50	=50	=50	=50	=50
1.AA_>	.	1.AA]	.	2A/	.	2a/	.	.	.	.	.
.	.	.	.	2c#/	.	2cc#\	.	.	.	.	.
.	.	.	.	2d#X/	.	2dd#X\	.	.	.	.	.
=51	=51	=51	=51	=51	=51	=51	=51	=51	=51	=51	=51
2AA/]	.	2AA/	.	4e/	.	4ee\	.	.	.	.	.
.	.	.	.	4c#/	.	4cc#\	.	.	.	.	.
!	!	!LO:LB:g=original	!	!	!	!	!	!	!	!	!
2AA/	.	2AA/	.	2d/	.	2dd\	.	.	.	.	.
2r	.	2r	.	4c#/	.	4cc#\	.	.	.	.	.
.	.	.	.	4G#/	.	4g#/	.	.	.	.	.
=52	=52	=52	=52	=52	=52	=52	=52	=52	=52	=52	=52
!LO:TX:a:t=1	!	!LO:TX:a:t=1	!	!	!	!	!	!	!	!	!
1.r	.	1.r	.	2A/	.	2a/	.	.	.	.	.
.	.	.	.	2A/	.	2a/	.	.	.	.	.
.	.	.	.	4cc#\	.	2r	.	.	.	.	.
.	.	.	.	4g#/	.	.	.	.	.	.	.
=53	=53	=53	=53	=53	=53	=53	=53	=53	=53	=53	=53
!	!	!	!	!	!	!LO:TX:a:t=2	!	!	!	!	!
2r	.	2r	.	2a/	.	0.r	.	1.r	.	1.r	.
2r	.	2r	.	2a/	.	.	.	.	.	.	.
4c#\	.	4c#\	.	2r	.	.	.	.	.	.	.
4G#\	.	4G#\	.	.	.	.	.	.	.	.	.
=54	=54	=54	=54	=54	=54	=54	=54	=54	=54	=54	=54
!	!	!	!	!LO:TX:a:t=1	!	!	!	!	!	!	!
2A\	.	2A\	.	1.r	.	.	.	2.cc#\	la-	2.ee\	la-
2r	.	2r	.	.	.	.	.	.	.	.	.
.	.	.	.	.	.	.	.	4b\	-bi-	4dd\	-bi-
2r	.	2r	.	.	.	.	.	2a\	-tur	2cc#\	-tur
=55	=55	=55	=55	=55	=55	=55	=55	=55	=55	=55	=55
!	!	!	!	!	!	!	!	!LO:TX:a:t=1	!	!LO:TX:a:t=1	!
4A\	8	4A\	.	4a/	.	4aa\	.	1.r	.	1.r	.
4C#/	8	4C#/	.	4c#/	.	4cc#\	.	.	.	.	.
4D\	8	4D\	.	4d/	.	4dd\	.	.	.	.	.
4E\	8	4E\	.	4e/	.	4ee\	.	.	.	.	.
2AA/	8	2AA/	.	2A/	.	2a/	.	.	.	.	.
==	==	==	==	==	==	==	==	==	==	==	==
*-	*-	*-	*-	*-	*-	*-	*-	*-	*-	*-	*-
!!!system-decoration: [(g1)][(g2)]s6
!!!RDF**kern: > = above
!!!RDF**kern: < = below
!!!AIN: 1 organ 2 soprn 1 violb 2 violn
!!!ENC: Kamil Watkowski
!!!END: 2020-07-21
!!!ENC: Marta Lawrence
!!!END: 2021-12-28
